images/pencil.svg

<svg xmlns="http://www.w3.org/2000/svg" viewBox="0 0 512 512" style="height: 512px; width: 512px;"><rect fill="#000000" fill-opacity="1" height="512" width="512" rx="32" ry="32"></rect><g class="" transform="translate(0,0)" style="touch-action: none;"><path d="M429.548 30.836c-.307-.003-.6.005-.875.024-2.212.147-3.34.653-4.576 1.89l-27.58 27.58 55.156 55.154 27.578-27.58c1.238-1.236 1.744-2.363 1.89-4.575.15-2.21-.37-5.433-1.805-9.163-2.87-7.46-9.277-16.667-17.055-24.445-7.778-7.778-16.985-14.185-24.445-17.055-3.264-1.255-6.138-1.81-8.287-1.83zm-45.758 42.22l-9.9 9.9 9.9 9.9 12.727 12.727 9.9 9.9 12.727 12.728 9.9 9.9 9.9-9.9-55.155-55.155zm-22.627 22.626L72.665 384.186l9.898 9.897 288.5-288.5-9.9-9.9zm22.627 22.63L95.29 406.808l9.9 9.902 288.5-288.5-9.9-9.9zm22.63 22.626l-288.502 288.5 9.897 9.9 288.503-288.5-9.9-9.9zM63.223 400.198l-12.12 30.306 30.393 30.394 30.305-12.12-6.61-6.612L92.46 429.44l-9.9-9.9-12.73-12.728-6.61-6.612zm-19.395 48.488l-12.993 32.478 32.478-12.992-19.486-19.485z" fill="#ffffff" fill-opacity="1"></path></g></svg>

<svg xmlns="http://www.w3.org/2000/svg" viewBox="0 0 512 512" style="height: 512px; width: 512px;"><rect fill="#000000" fill-opacity="1" height="512" width="512" rx="32" ry="32"></rect><g class="" transform="translate(0,0)" style="touch-action: none;"><g><path d="M429.548 30.836C429.241 30.833 428.948 30.841 428.673 30.86C426.461 31.007 425.333 31.513 424.097 32.75L396.517 60.33L451.673 115.484L479.251 87.904C480.489 86.668 480.995 85.541 481.141 83.329C481.291 81.119 480.771 77.896 479.336 74.166C476.466 66.706 470.059 57.499 462.281 49.721C454.503 41.943 445.296 35.536 437.836 32.666C434.572 31.411 431.698 30.856 429.549 30.836Z" class="" fill="#f5a9f5" fill-opacity="1"></path><path d="M383.79 73.056L373.89 82.956L383.79 92.856L396.517 105.583L406.417 115.483L419.144 128.211L429.044 138.111L438.944 128.211L383.789 73.056Z" class="" fill="#9b9b9b" fill-opacity="1"></path><path d="M361.163 95.682L72.665 384.186L82.563 394.083L371.063 105.583L361.163 95.683Z" class="" fill="#f8e71c" fill-opacity="1"></path><path d="M383.79 118.312L95.29 406.808L105.19 416.71L393.69 128.21L383.79 118.31Z" class="" fill="#f8e71c" fill-opacity="1"></path><path d="M406.42 140.938L117.918 429.438L127.815 439.338L416.318 150.838L406.418 140.938Z" class="" fill="#f8e71c" fill-opacity="1"></path><path d="M63.223 400.198L51.103 430.504L81.496 460.898L111.801 448.778L105.191 442.166L92.46 429.44L82.56 419.54L69.83 406.812L63.22 400.2Z" class="" fill="#ffe0af" fill-opacity="1"></path><path d="M43.828 448.686L30.835 481.164L63.313 468.172L43.827 448.687Z" class="selected" fill="#9b9b9b" fill-opacity="1"></path></g></g></svg>
